source/img/marker.svg

<svg xmlns="http://www.w3.org/2000/svg" width="38" height="50" fill="none"><ellipse cx="19" cy="48.5" fill="#7859CF" fill-opacity=".25" rx="8" ry="1.5"/><path fill="#7859CF" d="M38 20c0 15.0457-19 24-19 24S0 35.0457 0 20C0 8.9543 8.50659 0 19 0c10.4934 0 19 8.9543 19 20Z"/><path fill="#fff" fill-rule="evenodd" d="M19 36c8.2843 0 15-7.1635 15-16 0-8.8365-6.7157-16-15-16S4 11.1635 4 20c0 8.8365 6.7157 16 15 16Zm9.8566-10.6667c.732-1.6066 1.1435-3.4175 1.1435-5.3333 0-6.6274-4.9249-12-11-12-.8472 0-1.672.10448-2.4642.30226 3.7969.99997 6.5892 4.36594 6.5892 8.36444 0 3.1071-1.7445 6.1521-3.4375 8.6666h9.169ZM14.1875 10.6665c3.4172 0 6.1875 2.6863 6.1875 6 0 3.7998-3.0142 7.4675-5.4321 10.4095-.2602.3166-.5135.6248-.7554.9238H27.199c-2.0141 2.455-4.9412 4-8.199 4-6.0751 0-11-5.3725-11-12 0-3.6619 1.61517-9.3333 6.1875-9.3333Z" clip-rule="evenodd"/></svg>

<svg width="38" height="50" viewBox="0 0 38 50" fill="none" xmlns="http://www.w3.org/2000/svg">
<ellipse cx="19" cy="48.5" rx="8" ry="1.5" fill="#7859CF" fill-opacity="0.25"/>
<path d="M38 20C38 35.0457 19 44 19 44C19 44 0 35.0457 0 20C0 8.9543 8.50659 0 19 0C29.4934 0 38 8.9543 38 20Z" fill="#7859CF"/>
<path fill-rule="evenodd" clip-rule="evenodd" d="M19 36C27.2843 36 34 28.8365 34 20C34 11.1635 27.2843 4 19 4C10.7157 4 4 11.1635 4 20C4 28.8365 10.7157 36 19 36ZM28.8566 25.3333C29.5886 23.7267 30.0001 21.9158 30.0001 20C30.0001 13.3726 25.0752 8 19.0001 8C18.1529 8 17.3281 8.10448 16.5359 8.30226C20.3328 9.30223 23.1251 12.6682 23.1251 16.6667C23.1251 19.7738 21.3806 22.8188 19.6876 25.3333H28.8566ZM14.1875 10.6665C17.6047 10.6665 20.375 13.3528 20.375 16.6665C20.375 20.4663 17.3608 24.134 14.9429 27.076C14.6827 27.3926 14.4294 27.7008 14.1875 27.9998H27.199C25.1849 30.4548 22.2578 31.9998 19 31.9998C12.9249 31.9998 8 26.6273 8 19.9998C8 16.3379 9.61517 10.6665 14.1875 10.6665Z" fill="white"/>
</svg>
